wp-content/themes/sd-accesslasers/public/images/about/icons/about-2.svg

<?xml version="1.0" encoding="UTF-8"?>
<svg width="120px" height="120px" viewBox="0 0 120 120" version="1.1" xmlns="http://www.w3.org/2000/svg" xmlns:xlink="http://www.w3.org/1999/xlink">
    <!-- Generator: Sketch 55 (78076) - https://sketchapp.com -->
    <title>2</title>
    <desc>Created with Sketch.</desc>
    <g id="About" stroke="none" stroke-width="1" fill="none" fill-rule="evenodd">
        <g id="AL_About-Copy" transform="translate(-1456.000000, -2046.000000)" fill="#596975" fill-rule="nonzero">
            <g id="Core-Values" transform="translate(343.000000, 1685.000000)">
                <g id="Icons" transform="translate(0.000000, 361.000000)">
                    <g id="3" transform="translate(1113.000000, 0.000000)">
                        <g id="icon">
                            <g id="setting" transform="translate(10.000000, 10.000000)">
                                <path d="M28.4470703,36.1917969 C27.684375,35.4292969 26.4482422,35.4292969 25.6853516,36.1917969 L25.6650391,36.2121094 C24.9023438,36.9748047 24.9023438,38.2113281 25.6650391,38.9740234 C26.0464844,39.3552734 26.5460938,39.5460938 27.0458984,39.5460938 C27.5457031,39.5460938 28.0453125,39.3552734 28.4267578,38.9740234 L28.4470703,38.9537109 C29.2095703,38.1912109 29.2095703,36.9544922 28.4470703,36.1917969 Z" id="Path"></path>
                                <path d="M85.7517578,45.6662109 L80.7820312,45.6662109 C80.5154297,44.6607422 80.2035156,43.6572266 79.8542969,42.6810547 C79.4910156,41.665625 78.3730469,41.1371094 77.3576172,41.5003906 C76.3421875,41.8636719 75.8134766,42.9814453 76.1769531,43.9970703 C76.5070312,44.9197266 76.7998047,45.8699219 77.0472656,46.8208984 C77.4685547,48.4408203 78.9361328,49.5720703 80.6162109,49.5720703 L85.5375,49.5720703 L85.5375,60.9658203 L80.6046875,60.9658203 C78.9267578,60.9658203 77.4597656,62.0951172 77.0367187,63.7125 C76.2648437,66.6666016 75.0882812,69.5005859 73.5398438,72.1353516 C72.690625,73.5796875 72.9279297,75.41875 74.1164062,76.6070313 L77.6111328,80.1015625 L69.5546875,88.1580078 L66.0480469,84.6511719 C64.8617187,83.4654297 63.0251953,83.2271484 61.5820312,84.0716797 C58.9490234,85.6128906 56.11875,86.7830078 53.1703125,87.5498047 C51.5503906,87.9708984 50.4189453,89.4386719 50.4189453,91.11875 L50.4189453,96.084375 L39.0251953,96.084375 L39.0251953,91.1076172 C39.0251953,89.4294922 37.8957031,87.9625 36.2783203,87.5394531 C33.334375,86.7701172 30.5089844,85.5986328 27.88125,84.0572266 C26.4375,83.2103516 24.5994141,83.4476563 23.4119141,84.6353516 L19.8894531,88.1580078 L11.8330078,80.1015625 L15.3556641,76.5791016 C16.5429688,75.3917969 16.7806641,73.5539063 15.9337891,72.1097656 C14.3923828,69.4822266 13.2207031,66.6568359 12.4515625,63.7130859 C12.0291016,62.0955078 10.5617188,60.9658203 8.88339844,60.9658203 L3.90585937,60.9658203 L3.90585937,49.5720703 L8.87148437,49.5720703 C10.5517578,49.5720703 12.0193359,48.440625 12.4404297,46.8207031 C13.2072266,43.8720703 14.3773437,41.0417969 15.9185547,38.4089844 C16.7634766,36.9658203 16.525,35.1292969 15.3388672,33.9427734 L11.8322266,30.4363281 L19.8886719,22.3798828 L23.3832031,25.8746094 C24.5714844,27.0628906 26.4105469,27.3001953 27.8550781,26.4511719 C30.4896484,24.9025391 33.3236328,23.7261719 36.2779297,22.9542969 C37.8951172,22.5314453 39.0244141,21.0642578 39.0244141,19.3863281 L39.0244141,14.453125 L50.4181641,14.453125 L50.4181641,19.3744141 C50.4181641,21.0546875 51.5494141,22.5220703 53.1693359,22.9433594 C54.0988281,23.1851562 55.0273437,23.4703125 55.9289063,23.7908203 C56.9447266,24.1525391 58.0619141,23.6208984 58.4230469,22.6046875 C58.7841797,21.5884766 58.253125,20.4716797 57.2369141,20.1105469 C56.2845703,19.7720703 55.3052734,19.4689453 54.3240234,19.2087891 L54.3240234,14.2386719 C54.3240234,12.203125 52.6681641,10.5472656 50.6326172,10.5472656 L38.8103516,10.5472656 C36.7748047,10.5472656 35.1189453,12.203125 35.1189453,14.2386719 L35.1189453,19.2201172 C31.9353516,20.0683594 28.8783203,21.3375 26.0275391,22.9947266 L22.4990234,19.4660156 C21.0595703,18.0269531 18.7179688,18.0269531 17.2785156,19.4660156 L8.91875,27.8257812 C7.47949219,29.2650391 7.47949219,31.6070312 8.91875,33.0462891 L12.4597656,36.5869141 C10.8103516,39.4357422 9.54804688,42.4882812 8.70546875,45.6662109 L3.69140625,45.6662109 C1.65585937,45.6662109 0,47.3220703 0,49.3576172 L0,61.1798828 C0,63.2154297 1.65585937,64.8712891 3.69140625,64.8712891 L8.71679688,64.8712891 C9.56230469,68.0443359 10.8259766,71.0916016 12.4755859,73.9345703 L8.91875,77.4914062 C7.47949219,78.9306641 7.47949219,81.2726562 8.91875,82.7119141 L17.2785156,91.0716797 C18.7179688,92.5107422 21.0595703,92.5107422 22.4990234,91.0716797 L26.0556641,87.5146484 C28.8988281,89.1642578 31.9462891,90.428125 35.1189453,91.2732422 L35.1189453,96.2988281 C35.1189453,98.334375 36.7748047,99.9902344 38.8103516,99.9902344 L50.6326172,99.9902344 C52.6681641,99.9902344 54.3240234,98.3341797 54.3240234,96.2988281 L54.3240234,91.2847656 C57.5019531,90.4423828 60.5542969,89.1800781 63.4033203,87.5304687 L66.9439453,91.0714844 C68.3833984,92.5105469 70.725,92.5105469 72.1644531,91.0714844 L80.5242187,82.7117187 C81.9634766,81.2724609 81.9634766,78.9304687 80.5242187,77.4912109 L76.9955078,73.9626953 C78.6527344,71.1121094 79.921875,68.0546875 80.7701172,64.8712891 L85.7515625,64.8712891 C87.7871094,64.8712891 89.4429687,63.2154297 89.4429687,61.1798828 L89.4429687,49.3576172 C89.4431641,47.3222656 87.7873047,45.6662109 85.7517578,45.6662109 Z" id="Path"></path>
                                <path d="M99.5236328,15.3119141 C98.5685547,13.0017578 96.4222656,11.5626953 93.9224609,11.55625 L88.4671875,11.5419922 L88.4529297,6.08671875 C88.4464844,3.58691406 87.0074219,1.44082031 84.6972656,0.485546875 C82.3863281,-0.468945312 79.8523438,0.0337890625 78.0824219,1.79941406 L65.0361328,14.8132813 C64.66875,15.1796875 64.4623047,15.6773438 64.4623047,16.1958984 L64.4623047,32.7847656 L62.3548828,34.8921875 C57.8835938,31.01875 52.3626953,28.8029297 46.6740234,28.3871094 L46.6740234,26.1056641 C46.6740234,25.0273438 45.7994141,24.1527344 44.7210938,24.1527344 C43.6427734,24.1527344 42.7681641,25.0271484 42.7681641,26.1056641 L42.7681641,28.3835937 C39.3699219,28.6292969 35.9841797,29.5205078 32.7964844,31.0931641 C31.8294922,31.5703125 31.4322266,32.7412109 31.909375,33.7085937 C32.3863281,34.6755859 33.5574219,35.0728516 34.5248047,34.5958984 C37.1621094,33.2949219 39.9578125,32.5414062 42.7683594,32.3033203 L42.7683594,34.0474609 C42.7683594,35.1257812 43.6429688,36.0003906 44.7212891,36.0003906 C45.7996094,36.0003906 46.6742187,35.1259766 46.6742187,34.0474609 L46.6742187,32.3015625 C51.3480469,32.7011719 55.8759766,34.5253906 59.5861328,37.6613281 L54.0263672,43.2210938 C51.4505859,41.2271484 48.2234375,40.0363281 44.7214844,40.0363281 C36.3220703,40.0363281 29.4888672,46.8695312 29.4888672,55.2689453 C29.4888672,63.6683594 36.3220703,70.5015625 44.7214844,70.5015625 C53.1208984,70.5015625 59.9541016,63.6683594 59.9541016,55.2689453 C59.9541016,51.7765625 58.7701172,48.5574219 56.7859375,45.9851563 L62.3466797,40.4244141 C65.5068359,44.1710937 67.2816406,48.6951172 67.6712891,53.3160156 L65.9431641,53.3160156 C64.8648437,53.3160156 63.9902344,54.1904297 63.9902344,55.2689453 C63.9902344,56.3472656 64.8648437,57.221875 65.9431641,57.221875 L67.6712891,57.221875 C67.2298828,62.4560547 65.0126953,67.5673828 61.0164062,71.5636719 C57.0201172,75.5601563 51.9087891,77.7771484 46.6746094,78.2185547 L46.6746094,76.490625 C46.6746094,75.4123047 45.8001953,74.5376953 44.7216797,74.5376953 C43.6433594,74.5376953 42.76875,75.4121094 42.76875,76.490625 L42.76875,78.2185547 C37.5345703,77.7771484 32.4232422,75.5599609 28.4269531,71.5636719 C24.5,67.6369141 22.2253906,62.5220703 21.7691406,57.221875 L23.5,57.221875 C24.5783203,57.221875 25.4529297,56.3474609 25.4529297,55.2689453 C25.4529297,54.190625 24.5785156,53.3160156 23.5,53.3160156 L21.7638672,53.3160156 C21.9896484,50.6126953 22.6914062,47.9244141 23.8986328,45.3818359 C24.3613281,44.4076172 23.9464844,43.2425781 22.9720703,42.7802734 C21.9978516,42.3171875 20.8328125,42.7322266 20.3705078,43.7066406 C18.9097656,46.7835937 18.0820312,50.0431641 17.8492187,53.3160156 L15.5585938,53.3160156 C14.4802734,53.3160156 13.6056641,54.1904297 13.6056641,55.2689453 C13.6056641,56.3472656 14.4800781,57.221875 15.5585938,57.221875 L17.8544922,57.221875 C18.3199219,63.5382813 20.9916016,69.6517578 25.6654297,74.3255859 C30.2925781,78.9525391 36.3060547,81.6894531 42.7691406,82.1492188 L42.7691406,84.4324219 C42.7691406,85.5107422 43.6435547,86.3853516 44.7220703,86.3853516 C45.8003906,86.3853516 46.675,85.5109375 46.675,84.4324219 L46.675,82.1492188 C53.1380859,81.6894531 59.1515625,78.9527344 63.7787109,74.3255859 C68.4056641,69.6984375 71.1425781,63.6849609 71.6023437,57.221875 L73.8855469,57.221875 C74.9638672,57.221875 75.8384766,56.3474609 75.8384766,55.2689453 C75.8384766,54.190625 74.9640625,53.3160156 73.8855469,53.3160156 L71.6023437,53.3160156 C71.1888672,47.5041016 68.9339844,42.05625 65.1191406,37.6527344 L67.2251953,35.5466797 L83.8140625,35.5466797 C84.3328125,35.5466797 84.8302734,35.3402344 85.1966797,34.9728516 L98.2105469,21.9265625 C99.9753906,20.1568359 100.478906,17.6220703 99.5236328,15.3119141 Z M44.7214844,66.5958984 C38.4759766,66.5958984 33.3945312,61.5146484 33.3945312,55.2689453 C33.3945312,49.0232422 38.4757812,43.9419922 44.7214844,43.9419922 C47.1453125,43.9419922 49.3917969,44.7097656 51.2359375,46.0113281 L47.7765625,49.4707031 C47.0138672,50.2333984 47.0138672,51.4699219 47.7765625,52.2326172 C48.1580078,52.6138672 48.6576172,52.8046875 49.1574219,52.8046875 C49.6572266,52.8046875 50.1568359,52.6138672 50.5382812,52.2326172 L53.9945313,48.7763672 C55.2865234,50.6164063 56.0482422,52.8546875 56.0482422,55.26875 C56.0484375,61.5144531 50.9671875,66.5958984 44.7214844,66.5958984 Z M68.3683594,17.00625 L68.3683594,17.00625 L80.8410156,4.56484375 C81.7923828,3.615625 82.8910156,3.96542969 83.2050781,4.0953125 C83.5189453,4.225 84.54375,4.753125 84.5472656,6.09707031 L84.5644531,12.6830078 L73.8845703,23.3628906 L68.3683594,28.8791016 L68.3683594,17.00625 L68.3683594,17.00625 Z M95.4445312,19.1683594 L83.003125,31.640625 L71.1304687,31.640625 L76.6466797,26.1244141 L87.3265625,15.4445312 L93.9125,15.4617187 C95.2564453,15.4652344 95.7845703,16.4900391 95.9142578,16.8039062 C96.0439453,17.1183594 96.39375,18.2167969 95.4445312,19.1683594 Z" id="Shape"></path>
                                <path d="M45.8601562,54.1480469 C45.4986328,53.7845703 44.9949219,53.5757812 44.4794922,53.5757812 C43.9658203,53.5757812 43.4621094,53.7845703 43.0988281,54.1480469 C42.7357422,54.5113281 42.5265625,55.0152344 42.5265625,55.5287109 C42.5265625,56.0443359 42.7355469,56.5460938 43.0988281,56.9091797 C43.4621094,57.2744141 43.9660156,57.4816406 44.4794922,57.4816406 C44.9951172,57.4816406 45.496875,57.2744141 45.8601562,56.9091797 C46.2253906,56.5460938 46.4324219,56.0423828 46.4324219,55.5287109 C46.4324219,55.0150391 46.2253906,54.5111328 45.8601562,54.1480469 Z" id="Path"></path>
                            </g>
                        </g>
                    </g>
                </g>
            </g>
        </g>
    </g>
</svg>

<svg width="120" height="120" viewBox="0 0 120 120" version="1.1" xmlns="http://www.w3.org/2000/svg"><g id="About" stroke="none" stroke-width="1" fill="none" fill-rule="evenodd"><g id="AL_About-Copy" transform="translate(-1456 -2046)" fill="#596975" fill-rule="nonzero"><g id="Core-Values" transform="translate(343 1685)"><g id="Icons" transform="translate(0 361)"><g id="3" transform="translate(1113)"><g id="icon"><g id="setting" transform="translate(10 10)"><path d="M28.447 36.192a1.953 1.953 0 0 0-2.762 0l-.02.02a1.953 1.953 0 0 0 2.762 2.762l.02-.02c.763-.763.763-2 0-2.762z" id="Path"/><path d="M85.752 45.666h-4.97a37.204 37.204 0 0 0-.928-2.985 1.953 1.953 0 0 0-3.677 1.316c.33.923.623 1.873.87 2.824a3.684 3.684 0 0 0 3.57 2.751h4.92v11.394h-4.932a3.685 3.685 0 0 0-3.568 2.746 33.176 33.176 0 0 1-3.497 8.423 3.685 3.685 0 0 0 .576 4.472l3.495 3.495-8.056 8.056-3.507-3.507a3.687 3.687 0 0 0-4.466-.58 33.186 33.186 0 0 1-8.412 3.479 3.684 3.684 0 0 0-2.751 3.569v4.965H39.025v-4.976a3.685 3.685 0 0 0-2.747-3.569 33.173 33.173 0 0 1-8.397-3.482 3.686 3.686 0 0 0-4.47.578l-3.522 3.523-8.056-8.056 3.523-3.523a3.686 3.686 0 0 0 .578-4.47 33.163 33.163 0 0 1-3.482-8.396 3.685 3.685 0 0 0-3.569-2.747H3.906V49.572H8.87a3.684 3.684 0 0 0 3.57-2.751 33.18 33.18 0 0 1 3.478-8.412 3.686 3.686 0 0 0-.58-4.466l-3.507-3.507 8.057-8.056 3.494 3.495a3.685 3.685 0 0 0 4.472.576 33.163 33.163 0 0 1 8.423-3.497 3.685 3.685 0 0 0 2.746-3.568v-4.933h11.394v4.921a3.684 3.684 0 0 0 2.751 3.57c.93.241 1.858.526 2.76.847a1.953 1.953 0 1 0 1.308-3.68 37.194 37.194 0 0 0-2.913-.902v-4.97a3.695 3.695 0 0 0-3.691-3.692H38.81a3.695 3.695 0 0 0-3.691 3.692v4.981a37.089 37.089 0 0 0-9.091 3.775l-3.529-3.529a3.696 3.696 0 0 0-5.22 0l-8.36 8.36a3.696 3.696 0 0 0 0 5.22l3.54 3.54a37.09 37.09 0 0 0-3.754 9.08H3.691A3.695 3.695 0 0 0 0 49.358V61.18a3.695 3.695 0 0 0 3.691 3.691h5.026a37.082 37.082 0 0 0 3.759 9.064L8.919 77.49a3.696 3.696 0 0 0 0 5.22l8.36 8.36a3.696 3.696 0 0 0 5.22 0l3.557-3.556a37.076 37.076 0 0 0 9.063 3.758V96.3a3.695 3.695 0 0 0 3.691 3.691h11.823a3.696 3.696 0 0 0 3.691-3.691v-5.014a37.077 37.077 0 0 0 9.08-3.755l3.54 3.541a3.696 3.696 0 0 0 5.22 0l8.36-8.36a3.696 3.696 0 0 0 0-5.22l-3.528-3.528a37.089 37.089 0 0 0 3.774-9.092h4.982a3.695 3.695 0 0 0 3.691-3.691V49.358a3.695 3.695 0 0 0-3.691-3.692z" id="Path"/><path d="M99.524 15.312c-.955-2.31-3.102-3.75-5.602-3.756l-5.455-.014-.014-5.455c-.007-2.5-1.446-4.646-3.756-5.601-2.31-.955-4.845-.452-6.615 1.313L65.036 14.813a1.953 1.953 0 0 0-.574 1.383v16.589l-2.107 2.107a26.931 26.931 0 0 0-15.681-6.505v-2.281a1.953 1.953 0 0 0-3.906 0v2.278a26.894 26.894 0 0 0-9.972 2.71 1.953 1.953 0 0 0 1.729 3.502 22.996 22.996 0 0 1 8.243-2.293v1.744a1.953 1.953 0 0 0 3.906 0v-1.745c4.674.4 9.202 2.223 12.912 5.36l-5.56 5.56a15.152 15.152 0 0 0-9.305-3.186c-8.399 0-15.232 6.834-15.232 15.233 0 8.4 6.833 15.233 15.232 15.233 8.4 0 15.233-6.834 15.233-15.233a15.15 15.15 0 0 0-3.168-9.284l5.56-5.56a22.943 22.943 0 0 1 5.325 12.891h-1.728a1.953 1.953 0 0 0 0 3.906h1.728a22.941 22.941 0 0 1-6.655 14.342 22.94 22.94 0 0 1-14.341 6.655V76.49a1.953 1.953 0 0 0-3.906 0v1.728a22.941 22.941 0 0 1-14.342-6.655 23.061 23.061 0 0 1-6.658-14.342H23.5a1.953 1.953 0 0 0 0-3.906h-1.736a22.925 22.925 0 0 1 2.135-7.934 1.952 1.952 0 1 0-3.528-1.675 26.816 26.816 0 0 0-2.522 9.609h-2.29a1.953 1.953 0 0 0 0 3.906h2.295c.466 6.316 3.138 12.43 7.811 17.104 4.628 4.627 10.641 7.363 17.104 7.823v2.283a1.953 1.953 0 0 0 3.906 0V82.15c6.463-.46 12.477-3.196 17.104-7.823 4.627-4.628 7.364-10.641 7.823-17.104h2.284a1.953 1.953 0 0 0 0-3.906h-2.284a26.71 26.71 0 0 0-6.483-15.663l2.106-2.106h16.59c.518 0 1.015-.207 1.382-.574L98.21 21.927c1.764-1.77 2.268-4.305 1.313-6.615zM44.72 66.596c-6.245 0-11.326-5.081-11.326-11.327 0-6.246 5.08-11.327 11.326-11.327 2.424 0 4.67.768 6.515 2.07l-3.46 3.459a1.953 1.953 0 0 0 2.762 2.762l3.457-3.457a11.262 11.262 0 0 1 2.053 6.493c0 6.245-5.08 11.327-11.327 11.327zm23.647-49.59L80.841 4.565c.951-.95 2.05-.6 2.364-.47.314.13 1.339.658 1.342 2.002l.017 6.586-10.68 10.68-5.516 5.516V17.006zm27.077 2.162L83.003 31.641H71.13l5.517-5.517 10.68-10.68 6.585.018c1.344.003 1.873 1.028 2.002 1.342.13.314.48 1.413-.47 2.364z" id="Shape"/><path d="M45.86 54.148a1.96 1.96 0 0 0-1.38-.572c-.514 0-1.018.209-1.381.572a1.969 1.969 0 0 0-.572 1.38c0 .516.209 1.018.572 1.381a1.96 1.96 0 0 0 1.38.573 1.956 1.956 0 0 0 1.953-1.953 1.96 1.96 0 0 0-.572-1.381z" id="Path"/></g></g></g></g></g></g></g></svg>
